icon-themes/breeze_svg/cmd/32/outlinefont.svg

<svg viewBox="0 0 32 32" xmlns="http://www.w3.org/2000/svg"><path d="m14.306641 3-.244141.6484375-8.9257812 23.8144535-.6152344 1.537109h4.1699218l3.3925778-9h3.916016 3.914062l3.392579 9h4.169921l-.615234-1.537109-9.169922-24.462891h-1.691406zm.693359 1h1 1l8.929688 23.824219.070312.175781h-2l-3.392578-9h-4.607422-4.607422l-3.392578 9h-2l.0703125-.175781zm1 2.4023438-3.849609 10.5976562h3.849609 3.849609zm-.001953 2.9296874 2.423828 6.6679688h-2.421875-2.423828z" fill="#4d4d4d"/></svg>

<svg xmlns="http://www.w3.org/2000/svg" viewBox="0 0 32 32">
 <path 
     style="fill:#4d4d4d" 
     d="M 14.306641 3 L 14.0625 3.6484375 L 5.1367188 27.462891 L 4.5214844 29 L 8.6914062 29 L 12.083984 20 L 16 20 L 19.914062 20 L 23.306641 29 L 27.476562 29 L 26.861328 27.462891 L 17.691406 3 L 16 3 L 14.306641 3 z M 15 4 L 16 4 L 17 4 L 25.929688 27.824219 L 26 28 L 24 28 L 20.607422 19 L 16 19 L 11.392578 19 L 8 28 L 6 28 L 6.0703125 27.824219 L 15 4 z M 16 6.4023438 L 12.150391 17 L 16 17 L 19.849609 17 L 16 6.4023438 z M 15.998047 9.3320312 L 18.421875 16 L 16 16 L 13.576172 16 L 15.998047 9.3320312 z "
     />
</svg>
